app/dist/common/images/guangdong-zhongshe.svg

<svg height="18" viewBox="0 0 18 18" width="18" xmlns="http://www.w3.org/2000/svg"><path d="m0 0h18v18h-18z" fill="#f0f3fa"/><path d="m6.72 6.95c.64 0 1.19.41 1.39 1.05h1.09c-.2-1.24-1.34-2-2.5-2-1.64 0-2.7 1.37-2.7 3 0 1.68 1.06 3 2.74 3 1.39 0 2.5-.96 2.5-2.44v-.56h-2.24v1h1.21c-.1.43-.65 1.05-1.47 1.05-1.12 0-1.57-1-1.57-2.06 0-1.03.44-2.04 1.55-2.04zm2.9 4.37v.68h4.38v-1h-3.05l3.03-4.32v-.68h-4.38v1h3.05z"/></svg>

<!-- by TradingView --><svg width="18" height="18" viewBox="0 0 18 18" xmlns="http://www.w3.org/2000/svg"><path fill="#F0F3FA" d="M0 0h18v18H0z"/><path d="M6.72 6.95c.64 0 1.19.41 1.39 1.05H9.2C9 6.76 7.86 6 6.7 6 5.06 6 4 7.37 4 9c0 1.68 1.06 3 2.74 3 1.39 0 2.5-.96 2.5-2.44V9H7v1h1.21c-.1.43-.65 1.05-1.47 1.05-1.12 0-1.57-1-1.57-2.06 0-1.03.44-2.04 1.55-2.04Zm2.9 4.37V12H14v-1h-3.05l3.03-4.32V6H9.6v1h3.05l-3.03 4.32Z"/></svg>
